assets/images/icons/feature.svg

<svg width="28" height="27" viewBox="0 0 28 27" fill="none" xmlns="http://www.w3.org/2000/svg">
<path d="M28.0043 15.9982C28.0038 17.2367 27.6748 18.4529 27.0508 19.5227C26.4267 20.5925 25.53 21.4775 24.4522 22.0876C23.3743 22.6976 22.1539 23.0107 20.9155 22.995C19.6771 22.9793 18.4651 22.6353 17.403 21.9982H16.848L17.9618 25.7107C18.0066 25.86 18.0159 26.0177 17.9889 26.1712C17.962 26.3247 17.8995 26.4698 17.8064 26.5949C17.7134 26.72 17.5924 26.8216 17.4532 26.8916C17.3139 26.9616 17.1602 26.9981 17.0043 26.9982H11.0043C10.8484 26.9981 10.6947 26.9616 10.5554 26.8916C10.4162 26.8216 10.2952 26.72 10.2022 26.5949C10.1091 26.4698 10.0466 26.3247 10.0197 26.1712C9.99269 26.0177 10.002 25.86 10.0468 25.7107L11.1605 21.9982H10.6055C9.68063 22.554 8.63975 22.8884 7.56419 22.9754C6.48863 23.0624 5.40753 22.8995 4.40533 22.4995C3.40313 22.0996 2.50697 21.4733 1.78684 20.6697C1.06672 19.8661 0.54213 18.9068 0.254057 17.8669C-0.0340164 16.827 -0.077776 15.7346 0.126196 14.675C0.330169 13.6154 0.77635 12.6173 1.42989 11.7586C2.08343 10.9 2.92663 10.204 3.89362 9.72517C4.86062 9.24632 5.92523 8.9975 7.0043 8.99817C7.1018 8.99817 7.19805 8.99817 7.29555 8.99817C6.98438 7.95345 6.92151 6.85049 7.11193 5.77717C7.30236 4.70386 7.74082 3.68985 8.39238 2.81593C9.04395 1.94202 9.89061 1.23235 10.8649 0.743465C11.8392 0.254583 12.9142 0 14.0043 0C15.0944 0 16.1694 0.254583 17.1437 0.743465C18.118 1.23235 18.9646 1.94202 19.6162 2.81593C20.2678 3.68985 20.7062 4.70386 20.8967 5.77717C21.0871 6.85049 21.0242 7.95345 20.713 8.99817C20.8093 8.99817 20.9068 8.99817 21.0043 8.99817C22.8602 9.00015 24.6395 9.73829 25.9519 11.0506C27.2642 12.3629 28.0023 14.1423 28.0043 15.9982Z" fill="#e2d653"/>
</svg>

<svg xmlns="http://www.w3.org/2000/svg" width="28" height="27" fill="none" viewBox="0 0 28 27">
  <path fill="#e2d653" d="M28.0043 15.9982a7 7 0 0 1-.9535 3.5245 7.0006 7.0006 0 0 1-9.6478 2.4755h-.555l1.1138 3.7125a1 1 0 0 1-.5086 1.1809c-.1393.07-.293.1065-.4489.1066h-6a1.001 1.001 0 0 1-.8021-.4033.9996.9996 0 0 1-.1554-.8842l1.1137-3.7125h-.555a7 7 0 1 1-3.6012-13h.2913a7 7 0 1 1 13.4174 0h.2913a7.008 7.008 0 0 1 7 7"/>
</svg>
